X: 14956
T: Geese In The Bog, The
R: jig
M: 6/8
K: Aminor
|:cEE GEE|cEE GEE|cEE GED|EAA A2B|
cEE GEE|cEE GEE|cBA GED|EAA A2B:|
|:cde ged|eaa ged|cde ged|eaa a2B|
cde ged|eaa ged|cBA GED|EAA A2B:|

